src/assets/icons/download_cert_icon.svg

<svg fill="none" height="35" viewBox="0 0 34 35" width="34" xmlns="http://www.w3.org/2000/svg" xmlns:xlink="http://www.w3.org/1999/xlink"><filter id="a" color-interpolation-filters="sRGB" filterUnits="userSpaceOnUse" height="33.75" width="33.75" x=".125" y=".5"><feFlood flood-opacity="0" result="BackgroundImageFix"/><feColorMatrix in="SourceAlpha" result="hardAlpha" type="matrix" values="0 0 0 0 0 0 0 0 0 0 0 0 0 0 0 0 0 0 127 0"/><feMorphology in="SourceAlpha" operator="dilate" radius="0.375" result="effect1_dropShadow_821_8286"/><feOffset dy=".375"/><feGaussianBlur stdDeviation=".75"/><feColorMatrix type="matrix" values="0 0 0 0 0 0 0 0 0 0 0 0 0 0 0 0 0 0 0.200691 0"/><feBlend in2="BackgroundImageFix" mode="normal" result="effect1_dropShadow_821_8286"/><feBlend in="SourceGraphic" in2="effect1_dropShadow_821_8286" mode="normal" result="shape"/></filter><g filter="url(#a)"><rect fill="#16d2aa" height="30" rx="3" width="30" x="2" y="2"/></g><path d="m19.375 6.8125 6 6v12c0 .5304-.2107 1.0391-.5858 1.4142s-.8838.5858-1.4142.5858h-12c-.5304 0-1.0391-.2107-1.41421-.5858-.37508-.3751-.58579-.8838-.58579-1.4142v-16c0-.53043.21071-1.03914.58579-1.41421.37511-.37508.88381-.58579 1.41421-.58579zm4 18v-11h-5v-5h-7v16zm-6-1-4-4h2.5v-3h3v3h2.5z" fill="#fff"/></svg>

<svg width="34" height="35" viewBox="0 0 34 35" fill="none" xmlns="http://www.w3.org/2000/svg">
<g filter="url(#filter0_d_821_8286)">
<rect x="2" y="2" width="30" height="30" rx="3" fill="#16D2AA"/>
</g>
<path d="M19.375 6.8125L25.375 12.8125V24.8125C25.375 25.3429 25.1643 25.8516 24.7892 26.2267C24.4141 26.6018 23.9054 26.8125 23.375 26.8125H11.375C10.8446 26.8125 10.3359 26.6018 9.96079 26.2267C9.58571 25.8516 9.375 25.3429 9.375 24.8125V8.8125C9.375 8.28207 9.58571 7.77336 9.96079 7.39829C10.3359 7.02321 10.8446 6.8125 11.375 6.8125H19.375ZM23.375 24.8125V13.8125H18.375V8.8125H11.375V24.8125H23.375ZM17.375 23.8125L13.375 19.8125H15.875V16.8125H18.875V19.8125H21.375L17.375 23.8125Z" fill="white"/>
<defs>
<filter id="filter0_d_821_8286" x="0.125" y="0.5" width="33.75" height="33.75" filterUnits="userSpaceOnUse" color-interpolation-filters="sRGB">
<feFlood flood-opacity="0" result="BackgroundImageFix"/>
<feColorMatrix in="SourceAlpha" type="matrix" values="0 0 0 0 0 0 0 0 0 0 0 0 0 0 0 0 0 0 127 0" result="hardAlpha"/>
<feMorphology radius="0.375" operator="dilate" in="SourceAlpha" result="effect1_dropShadow_821_8286"/>
<feOffset dy="0.375"/>
<feGaussianBlur stdDeviation="0.75"/>
<feColorMatrix type="matrix" values="0 0 0 0 0 0 0 0 0 0 0 0 0 0 0 0 0 0 0.200691 0"/>
<feBlend mode="normal" in2="BackgroundImageFix" result="effect1_dropShadow_821_8286"/>
<feBlend mode="normal" in="SourceGraphic" in2="effect1_dropShadow_821_8286" result="shape"/>
</filter>
</defs>
</svg>
